!!!COM:	Bach, Johann Sebastian
!!!OMV:	Wo soll ich fliehen hin
!!!OTL:	Wo soll ich fliehen hin
**kern	**fb	**kern	**kern	**kern	**kern
*part5	*part5	*part4	*part3	*part2	*part1
*staff5	*	*staff4	*staff3	*staff2	*staff1
*I"Continuo	*	*I"Voice	*I"Voice	*I"Voice	*I"Voice
*I'Cont.	*	*I'V	*I'V	*I'V	*I'V
*clefF4	*	*clefF4	*clefGv2	*clefG2	*clefG2
*Trd0c0	*	*	*	*	*
*k[b-e-]	*	*k[b-e-]	*k[b-e-]	*k[b-e-]	*k[b-e-]
*M4/4	*	*M4/4	*M4/4	*M4/4	*M4/4
4GG	.	4GG	4B-	4d	4g
=2	=2	=2	=2	=2	=2
4G	.	4G	4B-	4d	4g
4F#X	6	4F#X	4A	4d	4a
4G	.	4G	8GL	4d	4b-
.	.	.	8B-J	.	.
4E-	6	4E-	4e-	4g	4cc
=3	=3	=3	=3	=3	=3
2.D;	#	2.D;	2.A;	2.f#X;	2.dd;
4C	6 4 #2|	4C	4A	4f#	4dd
=4	=4	=4	=4	=4	=4
4BB-	6	4BB-	4B-	4g	4dd
4AA	#6\	4AA	4c	8gL	4cc
.	.	.	.	8f#XJ	.
4GG	.	4GG	4d	4g	4b-
4C	6	4C	4e-	4a	4cc
=5	=5	=5	=5	=5	=5
2.D;	#	2.D;	2.d;	2.f#X;	2.a;
4D	.	4D	4d	4f#	4a
=6	=6	=6	=6	=6	=6
4G	.	4G	4d	4g	4b-
4F	.	4F	4fn	4a	4cc
8B-L	.	8B-L	4f	4b-	4dd
8A	.	8A	.	.	.
8G	.	8G	4g	4b-	4dd
8FJ	.	8FJ	.	.	.
=7	=7	=7	=7	=7	=7
4E-	6 5	4E-	4g	4b-	2cc
4F	.	4F	4f	4a	.
4BB-;	.	4BB-;	4f;	4b-;	4dd;
4FF#X	6	4F#X	4d	4a	4dd
=8	=8	=8	=8	=8	=8
!!linebreak:original
8GGL	.	4G	4d	4g	4b-
8G	.	.	.	.	.
8F	7 5	8FnL	4f	8aL	4cc
8E-J	.	8E-J	.	8gJ	.
8DL	6	8DL	4B-	4f	4dd
8C	.	8C	.	.	.
8BB-	.	8BB-	4B-	4f	4dd
8DJ	.	8DJ	.	.	.
=9	=9	=9	=9	=9	=9
8E-L	6 5	8E-L	4B-	4g	2cc
8C	.	8CJ	.	.	.
8F	.	4F	4A	4f	.
8FFJ	.	.	.	.	.
4BB-;	.	4BB-;	4d;	4f;	4b-;
4B-	.	4B-	4f	4b-	4dd
=10	=10	=10	=10	=10	=10
4A	6	4A	4f	4cc	4ff
4B-	.	4B-	8fL	4b-	4dd
.	.	.	8gJ	.	.
4F#X	6 5	4F#X	8aL	4a	4dd
.	.	.	8AJ	.	.
4G	.	4G	4B-	4g	4dd
=11	=11	=11	=11	=11	=11
4En	6 5	4En	4B-	4g	2cc
4C	.	4C	8AL	8fnL	.
.	.	.	8GJ	8enJ	.
4F;	.	4F;	4A;	4f;	4cc;
4E-X	6	4E-X	4G	4g	4cc
=12	=12	=12	=12	=12	=12
8DL	#	8DL	4A	4f#X	4dd
8CJ	.	8CJ	.	.	.
8BB-L	7 #5\ 2	8BB-L	4d	4f#	4cc
8AAJ	.	8AAJ	.	.	.
8GGL	.	8GGL	4d	4g	4b-
8FFJ	.	8FnJ	.	.	.
8EE-L	6	8E-L	8cL	4g	8ccL
8DDJ	6 4	8DJ	8dJ	.	8b-J
=13	=13	=13	=13	=13	=13
4CC	6 5	4C	4e-	4g	2a
4DD	#	4D	8dL	4f#X	.
.	.	.	8cJ	.	.
4GG;	n	4GG;	4Bn;	4d;	4g;
=||	=||	=||	=||	=||	=||
*-	*-	*-	*-	*-	*-
!!!system-decoration: s1,s2,s3,s4,s5
